X: 10981
Q: "Slow"
M: C
L: 1/16
K: D
b2(c'd') (bagf) (gfed) (e2f2) | D3d (fe.d).e f2d2d2 :|
b2 |\
{b}a3fd'3f (gfe)d ~e2f2 | a2f2d'3f a2d'2(d'3a) |\
b2d'2 {b}a3f (gf)(ed) (e2f2) | D3d (fe.d).e f2d2d2b2 |
{b}a3f{f}d'2f2 (gf)(ed) e2f2 | a2f2d'3f a2d'2(d'3a) |\
b2d'2~f3a (gf)(ed) e2f2 | D3d (fe.d).e {de}f2d2d2 |]


